X:1
T:Miserere Mei
T:W.A. Mozart K. 85
T:Psalm 51: 3-16
T:Miserere Mei
T:Copyright © 2015 by The Choral Public Domain Library. Edition may be freely distributed, duplicated, performed or recorded.
T:Copyright © 2015 by The Choral Public Domain Library. Edition may be freely distributed, duplicated, performed or recorded.
T:Copyright © 2015 by The Choral Public Domain Library. Edition may be freely distributed, duplicated, performed or recorded.
T:Copyright © 2015 by The Choral Public Domain Library. Edition may be freely distributed, duplicated, performed or recorded.
T:Copyright © 2015 by The Choral Public Domain Library. Edition may be freely distributed, duplicated, performed or recorded.
T:Copyright © 2015 by The Choral Public Domain Library. Edition may be freely distributed, duplicated, performed or recorded.
T:Copyright © 2015 by The Choral Public Domain Library. Edition may be freely distributed, duplicated, performed or recorded.
T:Copyright © 2015 by The Choral Public Domain Library. Edition may be freely distributed, duplicated, performed or recorded.
T:Copyright © 2015 by The Choral Public Domain Library. Edition may be freely distributed, duplicated, performed or recorded.
T:Copyright © 2015 by The Choral Public Domain Library. Edition may be freely distributed, duplicated, performed or recorded.
T:Copyright © 2015 by The Choral Public Domain Library. Edition may be freely distributed, duplicated, performed or recorded.
T:Copyright © 2015 by The Choral Public Domain Library. Edition may be freely distributed, duplicated, performed or recorded.
T:Copyright © 2015 by The Choral Public Domain Library. Edition may be freely distributed, duplicated, performed or recorded.
T:Copyright © 2015 by The Choral Public Domain Library. Edition may be freely distributed, duplicated, performed or recorded.
T:Copyright © 2015 by The Choral Public Domain Library. Edition may be freely distributed, duplicated, performed or recorded.
T:Copyright © 2015 by The Choral Public Domain Library. Edition may be freely distributed, duplicated, performed or recorded.
T:Copyright © 2015 by The Choral Public Domain Library. Edition may be freely distributed, duplicated, performed or recorded.
T:Copyright © 2015 by The Choral Public Domain Library. Edition may be freely distributed, duplicated, performed or recorded.
T:Copyright © 2015 by The Choral Public Domain Library. Edition may be freely distributed, duplicated, performed or recorded.
T:Copyright © 2015 by The Choral Public Domain Library. Edition may be freely distributed, duplicated, performed or recorded.
T:Copyright © 2015 by The Choral Public Domain Library. Edition may be freely distributed, duplicated, performed or recorded.
C:W.A. Mozart K. 85
Z:Psalm 51: 3-16
Z:Copyright © 2015 by The Choral Public Domain Library. Edition may be freely distributed, duplicated, performed or recorded.
%%score [ 1 2 3 ] { ( 4 5 7 8 ) | 6 }
L:1/8
Q:1/2=80
M:4/2
K:C
V:1 treble nm="Alto" snm="A."
V:2 treble-8 transpose=-12 nm="Tenor" snm="T."
V:3 bass nm="Bass" snm="B."
V:4 treble nm="Organ" snm="Org."
V:5 treble 
V:7 treble 
V:8 treble 
V:6 bass 
V:1
"^v. 3" E6 E2 C4 F4- | F4 E8 (F2 G2) | A16 | ^G16 | z8 z4 =G4 | G4 G4 A8- | (A4 B2 A2 ^G4) A4 | %7
w: Mi- se- re- re|_ me- i _|De-|us,|se-|cun- dum ma-|* * * * gnam|
 z2 A,2 F2 F2 E8- | E8- E4 A2 A2 | (A4 ^G2 ^F2 G8) | A16 || z24 | z24 ||[M:3/2]"^v. 4" E6 E2 E4 | %14
w: mi- se- ri- cor-|* * di- am|tu- * * *|am.|||Am- pli- us,|
 A6 A2 A4- | A4 D6 D2 | E8 E4- | E4 D4 B2 A2 | (^G4 B4) D4 | (C6 D2 E4-) | (E4 A8) | ^G4 =G8- | %22
w: am- pli- us|_ la- va|me ab|_ i- ni- qui-|ta- * te|me- * *||a: et|
 G4 G4 G4 | (G4 A4 G4 | F8) E4 | E4 D4 G4- | G6 G2 F4- | F4 E6 E2 | D4 A4 A2 A2 | A8 A4 | %30
w: _ a pec-|ca- * *|* to|me- o mun-|* da me,|_ mun- da|me, et a pec-|ca- to|
[M:3/1] ^G8 A8 G6 G2 | A16 || z24 | z24 ||[M:4/2]"^v. 6" E4 E4 G4 G2 G2 | E8 D4 D4 | B,4 G,4 G8- | %37
w: me- o mun- da|me.|||Ti- bi so- li pe-|cca- vi, et|ma- lum co-|
 (G4 A2 G2 F8-) | (F2 E2) D8 C4 | A8 ^G8 | z8 A6 A2 | G4 G4 (F2 E2) D4 | A6 A2 A4 G2 G2 | %43
w: |* * ram te|fe- ci:|ut ju-|sti- fi- ce- * ris|in ser- mo- ni- bus|
 A4 E4 z8 | A8 _B4 A4 | ^G8 A4 A4 | (A4 ^G2 ^F2 G8) | A16 || z24 | z24 ||[M:3/2]"^v. 8" z4 E4 E4 | %51
w: tu- is,|et vin- cas|cum ju- di-|ca- * * *|ris.|||E- cce|
 E8 E4- | E4 E4 E4 | F8 G4 |[M:3/1] F8 E8 E8 |[M:3/2] D8 z4 | F4 F4 F4 | (F4 G4) F4 | (E4 F4) E4 | %59
w: e- nim|_ ve- ri-|ta- tem|di- le- xi-|sti:|in- cer- ta|et _ oc-|cul- * ta|
 z4 E4 E4 | E6 E2 E4 | E4 E4 A4- | A4 _B4 A4 |[M:3/1] ^G8 A8 (A4 G4) | A16 || z24 | z24 || %67
w: sa- pi-|en- ti- ae|tu- ae ma-|* ni- fe-|sta- sti mi- *|hi.|||
[M:4/2]"^v. 10" z16 | z2 A2 A2 GF E2 E2 A4- | (A3 G F2) E2 (D2 EF G3) F | E4 A2 F2 D6 D2 | %71
w: |Au- di- tu- i me- o da-|* * * bis gau- * * * di-|um et lae- ti- ti-|
 C2 E2 E2 E2 E6 (^F^G) | A12- (A2 =G=F | E4) E2 (AF) D8- | D4 C4 B,8 | A,16 || z24 | z24 || %78
w: am: et ex- sul- ta- bunt *|os- * * *|* sa hu- * mi-|* li- a-|ta.|||
[M:3/2]"^v. 12" z12 | D4 D4 E4 | (F2 E2 F2 G2) A4- | A4 G4 F4 | (E4 D8) | C4 z4 E4 | E6 D2 D4 | %85
w: |Cor mun- dum|cre- * * * a|_ in me|De- *|us: et|spi- ri- tum|
 G8 G4 | F6 F2 F4 | E6 E2 A4 | (F6 E2) D2 C2 |[M:3/1] B,6 B,2 C8 B,8 | A,16 || z24 | z24 || %93
w: re- ctum|in- no- va,|in- no- va|in _ vi- *|sce- ri- bus me-|is.|||
[M:4/2]"^v. 14" z8 z2 A4 G2 | F4 F2 F2 E2 EE A2 A2 | A2 G2 ^F4 E4 z2 E2 | A2 AA A2 G2 (=F6 E2-) | %97
w: Red- de|mi- hi lae- ti- ti- am sa- lu-|ta- ris tu- i: et|spi- ri- tu prin- ci- pa- *|
 (E2 D4 BA ^G4) A2 A2 | A4 ^G4 A4 F4 | (E4 C4 B,6) B,2 | A,16 || z24 | z24 || %103
w: * * * * * li con-|fir- ma me, con-|fir- * * ma|me.|||
[M:4/2]"^v. 16" z8 E4 F2 G2 | A4 A2 A2 G4 G2 G2 | (A2 G2) F2 E2 D4 E4 | D8 C2 E2 E2 E2 | %107
w: Li- be- ra|me de san- gui- ni- bus,|De- * us sa- lu- tis|me- ae: et ex- sul-|
 F4 ^F4 G4 ^G4 | (A4 B4) E6 E2 | A6 B2 ^G2 G2 E4- | E4 F2 A2 (A4 ^G4) | A16 |] %112
w: ta- bit lin- gua|me- * a ju-|\-~sti- ti- am, ju- sti-|* ti- am tu- *|am.|
V:2
 z8 A6 A2 | G4 (A2 B2) c4 c4 | (c4 A4 d8) | e16 | z8 z4 e4 | e4 e4 (e4 f2 e2 | d12) c2 A2 | %7
w: Mi- se-|re- re _ me- i|De- * *|us,|se-|cun- dum ma- * *|* gnam mi-|
 (f2 d2) (B2 A2) (^G2 B2 e4-) | (e2 d2 c2 B2 A6) fd | B16 | A16 || G2 A2 c8 c2 A8 x2 | %12
w: \-~se- * ri- * cor- * *|* * * * * di- am|tu-|am.|Et se- \-~cundum~multitudinem~miserationum~tu- a- rum,|
 c8 B2 G2 A8 x4 ||[M:3/2] z4 A6 B2 | c4 ^c6 c2 | d4 A6 A2 | ^G12 | f6 e2 d2 c2 | B8 e4 | %19
w: dele~iniquita- tem me- am.|Am- pli-|us, am- pli-|us la- va|me|ab i- ni- qui-|\-~ta- te|
 e2 d2 c6 B2 | c2 B2 c4 d4 | e4 ^c8- | c4 ^c4 d4 | e12- | (e4 d4) =c4 | c4 B4 z4 | ^c6 c2 d4- | %27
w: me- * * *||a: et|_ a pec-|ca-|* * to|me- o|mun- da me,|
 d4 d4 ^c4 | d4 z4 z4 | d4 d2 d2 d4- |[M:3/1] d4 (e2 d2) c6 d2 B6 B2 | A16 || %32
w: _ mun- da|me,|et a pec- ca-|* to _ me- o mun- da|me.|
"^v. 5" G2 A2 c8 c2 A8 x2 | c8 B2 G2 A8 x4 ||[M:4/2] c4 c4 d4 d4- | d2 G2 c8 B4 | z4 d4 B4 G4 | %37
w: Quo- ni- am~iniquitatem~meam~ego~co- gno- sco:|et~peccatum~meum~contra~me est sem- per.|Ti- bi so- li|_ pe- cca- vi,|et ma- lum|
 (^c4 e8 d4-) | (d2 e2 f8) e4- | e2 f2 d4 e4 z4 | e6 e2 f4 f4 | ^c4 c4 d6 d2 | f4 e2 e2 d8 | %43
w: co- * *|* * * ram|_ te fe- ci:|ut ju- sti- fi-|ce- ris in ser-|mo- ni- bus tu-|
 ^c8 z8 | z8 f8 | e4 e8 c4- | c4 B2 A2 B8 | A16 ||"^v. 7" G2 A2 c8 c2 A8 x2 | c8 B2 G2 A8 x4 || %50
w: is,|et|vin- cas cum|_ ju- di- ca-|ris.|Ec- ce enim~in~iniquitatibus~conce- ptus sum:|et~in~peccatis~concepit~me~ma- ter me- a.|
[M:3/2] z4 ^c4 c4 | ^c8 c4- | c4 ^c4 c4 | d8 e4- |[M:3/1] e4 d4 d8 (d4 ^c4) |[M:3/2] d8 z4 | %56
w: E- cce|e- nim|_ ve- ri-|ta- tem|_ di- le- xi- *|sti:|
 d4 d4 d4 | d8 d4 | (=c4 d4) c4 | z4 B4 B4 | B6 e2 d4 | (c6 B2) A4 | f4 f4 f4 | %63
w: in- cer- ta|et oc-|cul- * ta|sa- pi-|en- ti- ae|tu- * ae|ma- ni- fe-|
[M:3/1] (e6 d2) c8 B8 | A16 ||"^v. 9" G2 A2 c8 c2 A8 x2 | c8 B2 G2 A8 x4 ||[M:4/2] z8 z2 e2 e2 cB | %68
w: sta- * sti mi-|hi.|A- sper- ges~me~hyssop,~et~mun da- bor:|Lavabis~me,~et~super~nivem~de- al- ba- bor.|Au- di- tu- i|
 (A3 B c2) d4 ed c2 BA | fe d4 c2 B6 (AB) | c4 c6 d2 B3 B | c4 z4 z2 e2 e2 e2 | c6 (BA) d4 d4- | %73
w: me- * * o da- * * * *|* * * bis gau- di- *|um et lae- ti- ti-|am: et ex- sul-|ta- bunt * os- sa|
 d2 B2 c2 c2 A8 | ^G4 A8 G4 | A16 ||"^v. 11" G2 A2 c8 c2 A8 x2 | c8 B2 G2 A8 x4 ||[M:3/2] z12 | %79
w: _ hu- mi- li- a-||ta.|A- ver- te~faciem~tuam~a~peccatis me- is:|et~omnes~iniquitates~me- as de- le.||
 B4 B4 ^c4 | (d2 ^c2 d2 e2) f4- | f4 e4 d4 | (=c8 B4) | c4 z4 c4 | c6 B2 B4 | B8 ^c4 | d6 d2 d4 | %87
w: Cor mun- dum|cre- * * * a|_ in me|De- *|us: et|spi- ri- tum|re- ctum|in- no- va,|
 =c6 d2 (e2 c2) | (d6 c2) (B2 A2) |[M:3/1] ^G6 G2 A8 (A4 G4) | A16 ||"^v. 13" G2 A2 c8 c2 A8 x2 | %92
w: in- no- va *|in _ vi- *|sce- ri- bus me- *|is.|Ne pro- jicias~me~a~facie tu- a:|
 c8 B2 G2 A8 x4 ||[M:4/2] z4 z2 e4 d2 c2 Bc | d3 c B2 (AB) c3 c c2 AA | %95
w: et~spiritum~sanctum~tuum~ne~au- fe- ras~a me.|Red- de mi- hi lae-|ti- ti- am, lae- * ti- ti- am sa- lu-|
 ^d2 e2 (e2 d2) e2 e2 e2 ee | c4 ^c4- c2 d4 =cB | A4 fe d4 ed c2 (BA) | f4 (e2 d2) c4 A4 | %99
w: ta- ris tu- * i: et spi- ri- tu|prin- ci- * pa- * *|* * * * * * li con- *|fir- ma _ me, con-|
 (A8 ^G6) G2 | A16 ||"^v. 15" G2 A2 c8 c2 A8 x2 | c8 B2 G2 A8 x4 ||[M:4/2] z4 e4 B2 ^c2 d4 | %104
w: fir- * ma|me.|Do- ce- bo~iniquos~vias tu- as:|et~impii~ad~te~con- ver- ten- tur.|Li- be- ra, li-|
 d2 d2 e2 ff d4 e2 e2 | (f2 e2) d2 c2 B4 c4 | (c4 B4) c4 z4 | z2 A2 A2 A2 B4 B4 | c4 ^G4 A4 A4 | %109
w: be- ra me de san- gui- ni- bus,|De- * us sa- lu- tis|me- * ae:|et ex- sul- ta- bit|lin- gua me- a|
 z2 A2 (d8 e2 d2 | c4) d2 f2 B8 | A16 |] %112
w: ju- sti- * *|* ti- am tu-|am.|
V:3
 z4 A,6 A,2 F,2 F,2 | C,12 (D,2 E,2) | F,16 | E,16 | z4 C,4 C8- | C4 C4 F,8 | F,8 z2 E,2 A,4- | %7
w: Mi- se- re- re|me- i _|De-|us,|se- cun-|* dum ma-|gnam mi- se-|
 A,2 F,2 D,4 E,6 D,2 | C,2 B,,2 A,,6 A,2 F,2 D,D, | E,16 | A,,16 || z24 | z24 ||[M:3/2] z12 | %14
w: * ri- cor- * *|* * * * * di- am|tu-|am.||||
 z4 A,6 G,2 | F,4 F,6 F,2 | E,12 | D,8 D,4 | E,4 ^G,8 | A,8 =G,4- | G,4 F,8 | E,4 E,8- | %22
w: Am- pli-|us la- va|me|ab i-|ni- qui-|ta- te|_ me-|a: et|
 E,4 E,4 D,4 | ^C,8 A,,4 | (D,4 B,,4) =C,4 | G,6 G,2 G,4 | z4 A,6 A,2 | _B,4 G,4 A,4 | D,4 z4 D,4 | %29
w: _ a pec-|ca- to|me- * o|mun- da me,|mun- da|me, mun- da|me, et|
 D,2 D,2 F,4 F,4 |[M:3/1] E,8 A,8 E,6 E,2 | A,,16 || z24 | z24 ||[M:4/2] A,,4 A,,4 B,,4 B,,2 B,,2 | %35
w: a pec- ca- to|me- o mun- da|me.|||Ti- bi so- li pe-|
 (C,2 D,2 E,2 F,2 G,4) G,,4 | z8 z4 G,4 | E,4 ^C,4 (D,6 E,2 | F,6 G,2 A,4) A,2 G,2 | F,8 E,8 | %40
w: cca- * * * * vi,|et|ma- lum co- *|* * * ram te|fe- ci:|
 z8 D,6 D,2 | E,4 E,4 F,6 E,2 | D,4 C,4 _B,,4 B,,2 B,,2 | A,,4 A,,4 A,8 | F,4 D,4 D8- | D8 C4 A,4 | %46
w: ut ju-|sti- fi- ce- ris|in ser- mo- ni- bus|tu- is, et|vin- cas cum|_ ju- di-|
 E,16 | A,,16 || z24 | z24 ||[M:3/2] z4 A,4 A,4 | A,8 A,4 | (_B,4 A,4) G,4 | F,8 E,4 | %54
w: ca-|ris.|||a. cce|e- nim|ve- * ri-|ta- tem|
[M:3/1] D,8 G,8 A,8 |[M:3/2] D,8 z4 | D,4 D4 C4 | =B,8 B,4 | C8 C,4 | G,8 G,4 | ^G,6 G,2 G,4 | %61
w: di- le- xi-|sti:|in- cer- ta|et oc-|cul- ta|sa- pi-|en- ti- ae|
 A,4 A,,4 F,4- | F,4 D,4 D,4 |[M:3/1] E,8 F,8 (D,4 E,4) | A,,16 || z24 | z24 || %67
w: tu- ae ma-|* ni- fe-|sta- sti mi- *|hi.|||
[M:4/2] z2 A,2 A,2 G,F, E,4 E,4 | F,6 (E,D,) ^G,4 A,4- | A,2 F,E, D,4 =G,6 G,2 | %70
w: Au- di- tu- i me- o|da- bis _ gau- *|* * * * * di-|
 C,4 F,6 D,2 G,3 G, | C,4 z4 z8 | z2 A,2 A,2 A,2 F,6 (E,D,) | ^G,4 A,4 z2 F,2 E,2 D,2 | E,16 | %75
w: um et lae- ti- ti-|am:|et ex- sul- ta- bunt *|os- sa hu- mi- li-|a-|
 A,,16 || z24 | z24 ||[M:3/2] A,4 E,4 F,4 | G,12 | F,6 E,2 D,2 C,2 | B,,8 B,,4 | C,4 (F,4 G,4) | %83
w: ta.|||Cor mun- dum|cre-||a in|me De- *|
 C,4 z4 z4 | z4 z4 G,4 | E,6 E,2 E,4 | (D,6 E,2) (F,2 D,2) | A,6 A,,2 A,,4 | D,8 D,4 | %89
w: us:|et|spi- ri- tum|re- * ctum *|in- no- va|in vi-|
[M:3/1] E,6 E,2 A,,8 E,8 | A,,16 || z24 | z24 ||[M:4/2] z2 A,4 G,2 F,4 E,2 E,2 | %94
w: sce- ri- bus me-|is.|||Red- de mi- hi lae-|
 D,3 D, D,4 z2 A,4 ^F,2 | B,2 E,2 B,,4 E,4 z4 | z2 A,2 A,2 A,A, D,4 E,4 | F,8 E,6 E,2 | %98
w: ti- ti- am, sa- lu-|\-~ta- ris tu- i:|et spi- ri- tu prin- ci-|pa- li con-|
 D,4 E,4 A,,4 D,4 | E,8- E,6 E,2 | A,,16 || z24 | z24 ||[M:4/2] A,4 E,2 ^F,2 G,4 =F,2 F,2 | %104
w: fir- ma me, con-|fir- * ma|me.|||Li- be- ra me de san-|
 F,4 E,2 D,2 G,4 C,2 C,2 | (F,8 G,4) C,4 | G,8 C,4 z4 | z8 z2 E,2 E,2 E,2 | ^D,4 =D,4 ^C,4 =C,4 | %109
w: gui- ni- bus, De- us sa-|lu- * tis|me- ae:|et ex- sul-|ta- bit lin- gua|
 F,8 E,6 E,2 | A,4 D,2 D,2 E,8 | A,,16 |] %112
w: me- a ju-|sti- ti- am tu-|am.|
V:4
 z4 E8 [A,F-]4 | F4 E8 F2 G2 | [A,A]16 | [B,E^G]16 | z4 [E=G]4 [EG]8- | [EG]4 [E-G]4 A8- | %6
 A4 B2 A2 ^G4 A4 | [DF]8 [^G,B,E]8 | E8- E4 A4- | A4 ^G2 ^F2 [E-G]8 | [A,EA]16 || z24 | z24 || %13
[M:3/2] z12 | z4 [^CE]8 | [DA]8 [A,D]4 | [^G,B,E-]12 | F12 | E12 | [CE]6 D2 E4- | E4 [A,A]8 | %21
 [B,^G]4 [^C=G]8- | [CG-]12 | G4 A4 G4 | x4 G8- | G12 | [A,^CG]8 [DF]4- | F4 E8 | %28
 [A,DF]4 z4 [DFA]4- | A12 |[M:3/1] ^G8 [CA]8 [B,G]8 | [A,EA]16 || z24 | z24 || %34
[M:4/2] [CE]8 [D-G]8 | E8 D8 | z8 [B,DG-]8 | [^CEG]4 A2 G2 F8 | [DF]2 E2 [DF]8 E4- | %39
 E2 F2 D4 [B,E]8 | z8 [A,DF]8 | [G,^CE]8 A6 G2 | A12 G4 | A8- A2 G2 F2 E2 | A8 _B4 A4 | ^G8 A8- | %46
 [CA]4 [B,^G]2 [A,^F]2 [B,G]8 | [A,EA]16 || z24 | z24 ||[M:3/2] [^CE]12- | [CE]12- | [CE]12 | %53
 [DF]8 [^CE-G]4 |[M:3/1] [A,F]8 _B,8 A,8 |[M:3/2] D6 ^C2 D2 E2 | [DF]12- | F4 G4 F4 | %58
 [CE]4 [DF]4 [CE-]4 | [B,E]12- | [B,E]8- [B,DE]4 | [CE]6 D2 [CA]4- | A4 _B4 A4 | %63
[M:3/1] [B,^G]8 A8- [FA]4 [EG]4 | [A,EA]16 || z24 | z24 ||[M:4/2] z8 E6 CB, | %68
 [A,C]3 B, A,2 D2- E8 | [DF]6 [CE]2 F4 G2 F2 | E4 [FA]8 [DG]4 | [CEG]4 z4 z8 | %72
 z2 [CE]2 [CE]4 A6 GF | E8 z2 D2 E2 [D-F]2 | ^G,4 C4 B,8 | E16 || z24 | z24 ||[M:3/2] z12 | %79
 [B,D]8 [^CE]4 | [DF]2 [^CE]2 [DF]2 [EG]2 [FA]4- | [FA]4 [EG]4 [DF]4 | E4 D8 | [G,CE]6 D2 C2 E2- | %84
 [CE]6 [B,D]2 [B,D]4 | [G,G]12 | [A,DF]6 G2 A2 F2 | [=CE]12 | [DF]6 [CE]2 [B,D]2 [A,C]2 | %89
[M:3/1] D8 C8 B,8 | [CE]16 || z24 | z24 ||[M:4/2] A,4 C2 B,2 A,2 A4 G2 | F8 z4 A4- | %95
 A2 G2 ^F4 E4 z4 | E6 [E-G]2 F6 E2- | E2 DC D8 A4- | A4 ^G4 A4 F4 | E16- | [A,E]16 || z24 | z24 || %103
[M:4/2] z4 E8 A4- | A8 G8 | [FA]2 [EG]2 [DF]2 [CE]2 [B,D]4 [C-E]4 | D8 C4 E4 | F4 ^F4 G4 ^G4 | %108
 [C^FA]4 [B,E^G]4 [A,-EA]8 | A6 B2 [B,^G]8 | A12 ^G4 | [A,EA]16 |] %112
V:5
 x4 C12 | [G,C]8 C8 | E8 D8 | x16 | x16 | x8 E4 F2 E2 | D12 C4 | A,4 B,2 A,2 x8 | A,6 B,2 C4 D4 | %9
 B,16 | x16 || x24 | x24 ||[M:3/2] x12 | x12 | x12 | x12 | E4 D6 C2 | [^G,B,]4 [B,D]8 | x8 C2 B,2 | %20
 C2 B,2 C4 D4 | E12 | x8 [_B,D]4 | E12 | [A,E]4 D4 C4- | [CE]4 [B,D]8 | x12 | D8 [A,-^C]4 | x12 | %29
 [DF]4 [A,D-]8 |[M:3/1] [B,D]8 E16 | x16 || x24 | x24 ||[M:4/2] x16 | D4 C8 B,4 | x16 | x4 E8 D4- | %38
 x12 =C2 B,2 | A,8 ^G,8 | x16 | x8 [A,D]8 | F4 E4 D8 | [^CE]16 | [DF]16 | E16- | E16 | x16 || x24 | %49
 x24 ||[M:3/2] x12 | x12 | x12 | x12 |[M:3/1] E4 D16 ^C4 |[M:3/2] x12 | x12 | D12 | x12 | x12 | %60
 x12 | x12 | [CF-]4 [DF]8 |[M:3/1] E6 D2 [A,C]8 B,8 | z16 || x24 | x24 ||[M:4/2] x16 | %68
 x4 A,4 [B,D]4 C4 | x8 D8 | C8- C2 D2 B,4 | x16 | x8 D8- | [B,D]4 C4 x4 A,4 | D4 A,8 ^G,4 | A,16 || %76
 x24 | x24 ||[M:3/2] x12 | x12 | x12 | x12 | =C8 B,4 | x8 C4- | x12 | B,8 ^C4 | x8 D4 | x12 | %88
 A,8 x4 |[M:3/1] ^G,8 A,12 G,4 | A,16 || x24 | x24 ||[M:4/2] x4 E6 D2 C2 B,2 | D8 [CE]8 | %95
 ^D2 E4 D2 x8 | C4 ^C4 E2 D4 =CB, | A,8 B,4 [CE]4 | F4 E2 D2 C4 [A,D]4 | [A,C]8 [^G,B,]8 | x16 || %101
 x24 | x24 ||[M:4/2] x8 B,2 ^C2 D4- | D4 [=CE]2 [DF]2 [B,D]4 [CE]4 | x16 | C4 B,4 x8 | A,8 B,8 | %108
 x16 | [A,D-]8 D4 E2 D2 | [CE]4 [DF]4 [B,E-]8 | z16 |] %112
V:6
 z4 A,6 A,2 F,2 F,2 | C,12 D,2 E,2 | F,16 | E,16 | z4 C,4 C8- | C4 C4 F,8 | F,8 z2 E,2 A,4- | %7
 A,2 F,2 D,4 E,6 D,2 | C,2 B,,2 A,,6 A,2 F,2 D,2 | E,16 | A,,16 || z24 | z24 ||[M:3/2] z4 A,6 B,2 | %14
 C4 A,6 G,2 | F,4 F,6 F,2 | E,12 | D,8 D,4 | E,4 ^G,8 | A,8 =G,4- | G,4 F,8 | E,4 E,8- | %22
 E,4 E,4 D,4 | ^C,8 A,,4 | D,4 B,,4 =C,4 | G,8 G,,4 | z4 A,6 A,2 | _B,4 G,4 A,4 | D,4 z4 D,4 | %29
 D,2 D,2 F,4 F,4 |[M:3/1] E,8 A,8 E,4 E,,4 | A,,16 || z24 | z24 ||[M:4/2] A,,8 B,,8 | %35
 C,2 D,2 E,2 F,2 G,4 G,,4 | z8 z4 G,4 | E,4 ^C,4 D,6 E,2 | F,6 G,2 A,6 G,2 | F,8 E,8 | z8 D,8 | %41
 E,8 F,6 E,2 | D,4 C,4 _B,,8 | A,,8 A,8 | F,4 D,4 D8- | D8 C4 A,4 | E,16 | A,,16 || z24 | z24 || %50
[M:3/2] A,,4 A,4 A,4 | A,8 A,4 | _B,4 A,4 G,4 | F,8 E,4 |[M:3/1] D,8 G,4 G,,4 A,,8 | %55
[M:3/2] D,8 z4 | D,4 D4 C4 | =B,8 B,4 | C8 C,4 | G,4 G,,4 G,4 | ^G,8 G,4 | A,4 A,,4 F,4- | %62
 F,4 D,4 D,4 |[M:3/1] E,8 F,8 D,4 E,4 | A,,16 || z24 | z24 ||[M:4/2] z2 A,2 A,2 G,F, E,4 E,4 | %68
 F,6 E,D, ^G,4 A,4- | A,2 F,E, D,4 =G,4 G,,4 | C,4 F,6 D,2 G,2 G,,2 | C,4 z4 z8 | %72
 z2 A,2 A,2 A,2 F,6 E,D, | ^G,4 A,4 z2 F,2 E,2 D,2 | E,16 | A,,16 || z24 | z24 || %78
[M:3/2] .A,4 .E,4 .F,4 | G,12 | F,6 E,2 D,2 =C,2 | B,,8 B,,4 | C,4 F,4 G,4 | C,6 D,2 E,2 C,2 | %84
 G,4 G,,4 G,4 | E,6 E,2 E,4 | D,6 E,2 F,2 D,2 | A,6 A,,2 A,,4 | D,8 D,4 |[M:3/1] E,8 A,,4 A,4 E,8 | %90
 A,,16 || z24 | z24 ||[M:4/2] z2 A,4 G,2 F,4 E,2 E,2 | D,3 D, D,2 D,2 A,,2 A,4 ^F,2 | %95
 B,2 E,2 B,,4 E,4 z4 | z2 A,2 A,2 A,2 D,4 E,4 | F,8 E,8 | D,4 E,4 A,,4 D,4 | E,16 | A,,16 || z24 | %102
 z24 ||[M:4/2] A,4 E,2 ^F,2 G,4 =F,2 F,2 | F,4 E,2 D,2 G,4 C,2 C,2 | F,8 G,4 C,4 | G,8 C,4 z4 | %107
 z8 z2 E,2 E,2 E,2 | ^D,4 =D,4 ^C,4 =C,4 | F,8 E,6 E,2 | A,4 D,4 E,8 | A,,16 |] %112
V:7
 x16 | x16 | x16 | x16 | x16 | x16 | x16 | x16 | x16 | x16 | x16 || x24 | x24 ||[M:3/2] x12 | x12 | %15
 x12 | x12 | A,8 B,2 A,2 | x12 | x12 | x12 | x12 | x12 | A,8 ^C4 | x8 E4- | x12 | x12 | x12 | x12 | %29
 x12 |[M:3/1] x24 | x16 || x24 | x24 ||[M:4/2] x16 | x16 | x16 | x16 | x16 | x16 | x16 | x16 | %42
 x16 | x16 | x16 | x16 | x16 | x16 || x24 | x24 ||[M:3/2] x12 | x12 | x12 | x12 |[M:3/1] x24 | %55
[M:3/2] x12 | x12 | x12 | x12 | x12 | x12 | x12 | x12 |[M:3/1] x24 | x16 || x24 | x24 || %67
[M:4/2] x16 | x16 | x16 | x16 | x16 | x16 | x16 | x16 | x16 || x24 | x24 ||[M:3/2] x12 | x12 | %80
 x12 | x12 | x12 | x12 | x12 | x12 | x12 | x12 | x12 |[M:3/1] x24 | x16 || x24 | x24 || %93
[M:4/2] x16 | x16 | x16 | x8 A,4 G,4 | x16 | x16 | x16 | x16 || x24 | x24 ||[M:4/2] x16 | x16 | %105
 x16 | x16 | x16 | x16 | x16 | x16 | x16 |] %112
V:8
 x16 | x16 | x16 | x16 | x16 | x16 | x16 | x16 | x16 | x16 | x16 || x24 | x24 ||[M:3/2] x12 | x12 | %15
 x12 | x12 | x12 | x12 | x12 | x12 | x12 | x12 | x12 | F8 x4 | x12 | x12 | x4 _B,4 x4 | x12 | x12 | %30
[M:3/1] x24 | x16 || x24 | x24 ||[M:4/2] x16 | x16 | x16 | x16 | x16 | x16 | x16 | x16 | x16 | %43
 x16 | x16 | x16 | x16 | x16 || x24 | x24 ||[M:3/2] x12 | x12 | x12 | x12 |[M:3/1] x8 E16 | %55
[M:3/2] x12 | x12 | x12 | x12 | x12 | x12 | x12 | x12 |[M:3/1] x24 | x16 || x24 | x24 || %67
[M:4/2] x16 | x16 | x16 | x16 | x16 | x16 | x16 | E16- | x16 || x24 | x24 ||[M:3/2] x12 | x12 | %80
 x12 | x12 | x12 | x12 | x12 | x12 | x12 | x12 | x12 |[M:3/1] E24- | x16 || x24 | x24 || %93
[M:4/2] x16 | x16 | B,8 x8 | x16 | x16 | B,8 x8 | x16 | x16 || x24 | x24 ||[M:4/2] x16 | x16 | %105
 x16 | x16 | x16 | x16 | x16 | x16 | x16 |] %112

